;FLAVOR:Marlin
;TIME:2049
;Filament used: 1.47102m
;Layer height: 0.2
;MINX:154.456
;MINY:46.77
;MINZ:0.2
;MAXX:227.473
;MAXY:121.98
;MAXZ:6.2
;TARGET_MACHINE.NAME:Creality Ender-3
;Generated with Cura_SteamEngine 5.6.0
M140 S70
M105
M190 S70
M104 S200
M105
M109 S200
M82 ;absolute extrusion mode
; Ender 3 Custom Start G-code
; Código de Início Personalizado para Ender 3 (@DjEdu28)
G92 E0 ; Define a posição atual do extrusor como zero
G28 ; Move cada eixo para o seu ponto de origem
G1 Z2.0 F3000 ; Move o eixo Z para cima para evitar arranhar a cama de impressão
G1 X0.1 Y20 Z0.3 F5000.0 ; Move para a posição inicial
G1 X0.1 Y200.0 Z0.3 F1500.0 E15 ; Desenhe a primeira linha
G1 X0.4 Y200.0 Z0.3 F5000.0 ; Mova um pouco para o lado
G1 X0.4 Y20 Z0.3 F1500.0 E30 ; Desenhe a segunda linha
G92 E0 ; Define a posição atual do extrusor como zero
G1 Z2.0 F3000 ; Move o eixo Z para cima para evitar arranhar a cama de impressão
G1 X5 Y20 Z0.3 F5000.0 ; Mova para o lado para evitar que o filamento fique esmagado
; Fim do inicio do Início Personalizado para Ender 3
G92 E0
G92 E0
G1 F2700 E-5
;LAYER_COUNT:31
;LAYER:0
M107
G0 F6000 X155.555 Y59.513 Z0.2
;TYPE:SKIRT
G1 F2700 E0
G1 F1200 X155.887 Y58.745 E0.02783
G1 X156.058 Y58.389 E0.04096
G1 X156.529 Y57.515 E0.07399
G1 X157.065 Y56.703 E0.10635
G1 X157.671 Y55.94 E0.13875
G1 X158.291 Y55.284 E0.16878
G1 X159.07 Y54.595 E0.20337
G1 X159.743 Y54.092 E0.23131
G1 X160.053 Y53.88 E0.2438
G1 X160.881 Y53.367 E0.2762
G1 X161.719 Y52.944 E0.30742
G1 X162.657 Y52.572 E0.34098
G1 X163.702 Y52.261 E0.37725
G1 X164.689 Y52.059 E0.41075
G1 X166.091 Y51.922 E0.45761
G1 X169.134 Y51.823 E0.55887
G1 X171.618 Y51.667 E0.64165
G1 X174.118 Y51.439 E0.72515
G1 X176.603 Y51.14 E0.80839
G1 X179.123 Y50.766 E0.89313
G1 X181.547 Y50.335 E0.97502
G1 X184.088 Y49.809 E1.06132
G1 X186.467 Y49.248 E1.14262
G1 X188.909 Y48.595 E1.22669
G1 X192.198 Y47.6 E1.34098
G1 X193.133 Y47.3 E1.37364
G1 X194.074 Y47.045 E1.40607
G1 X195.037 Y46.875 E1.43859
G1 X196.146 Y46.785 E1.4756
G1 X196.785 Y46.77 E1.49686
G1 X215.777 Y46.77 E2.12853
G1 X216.657 Y46.783 E2.15781
G1 X217.629 Y46.842 E2.19019
G1 X218.592 Y46.988 E2.22259
G1 X219.539 Y47.219 E2.25501
G1 X220.427 Y47.519 E2.28619
G1 X221.319 Y47.909 E2.31857
G1 X222.202 Y48.396 E2.35211
G1 X222.953 Y48.898 E2.38215
G1 X223.768 Y49.556 E2.41699
G1 X224.466 Y50.234 E2.44935
G1 X225.102 Y50.971 E2.48173
G1 X225.672 Y51.761 E2.51413
G1 X226.134 Y52.537 E2.54417
G1 X226.588 Y53.479 E2.57895
G1 X226.917 Y54.357 E2.61014
G1 X227.186 Y55.329 E2.64368
G1 X227.363 Y56.295 E2.67634
G1 X227.458 Y57.422 E2.71396
G1 X227.473 Y58.096 E2.73638
G1 X227.472 Y110.38 E4.47536
G1 X227.461 Y111.143 E4.50074
G1 X227.404 Y112.116 E4.53315
G1 X227.259 Y113.079 E4.56555
G1 X227.03 Y114.025 E4.59792
G1 X226.719 Y114.949 E4.63034
G1 X226.327 Y115.84 E4.66272
G1 X225.859 Y116.692 E4.69505
G1 X225.337 Y117.473 E4.7263
G1 X224.704 Y118.258 E4.75984
G1 X224.079 Y118.909 E4.78985
G1 X223.29 Y119.597 E4.82467
G1 X222.53 Y120.147 E4.85587
G1 X221.663 Y120.664 E4.88945
G1 X220.785 Y121.086 E4.92185
G1 X219.874 Y121.428 E4.95421
G1 X218.935 Y121.689 E4.98663
G1 X217.969 Y121.867 E5.0193
G1 X216.818 Y121.965 E5.05772
G1 X216.143 Y121.98 E5.08017
G1 X197.008 Y121.979 E5.71661
G1 X196.266 Y121.966 E5.74129
G1 X195.294 Y121.905 E5.77368
G1 X194.332 Y121.758 E5.80605
G1 X193.392 Y121.528 E5.83824
G1 X192.671 Y121.29 E5.86349
G1 X191.613 Y120.901 E5.90098
G1 X189.147 Y120.031 E5.98796
G1 X186.721 Y119.252 E6.0727
G1 X184.324 Y118.554 E6.15574
G1 X181.873 Y117.918 E6.23996
G1 X179.415 Y117.353 E6.32385
G1 X176.944 Y116.857 E6.40767
G1 X174.472 Y116.435 E6.49108
G1 X171.988 Y116.082 E6.57453
G1 X169.5 Y115.801 E6.6578
G1 X166.984 Y115.585 E6.7418
G1 X165.956 Y115.528 E6.77604
G1 X164.985 Y115.458 E6.80842
G1 X164.017 Y115.344 E6.84084
G1 X163.065 Y115.143 E6.8732
G1 X162.133 Y114.859 E6.9056
G1 X161.229 Y114.494 E6.93803
G1 X160.362 Y114.051 E6.97041
G1 X159.567 Y113.552 E7.00163
G1 X158.762 Y112.942 E7.03522
G1 X158.044 Y112.288 E7.06753
G1 X157.407 Y111.599 E7.09874
G1 X156.79 Y110.798 E7.13237
G1 X156.267 Y109.976 E7.16477
G1 X155.819 Y109.112 E7.19714
G1 X155.474 Y108.278 E7.22716
G1 X155.182 Y107.358 E7.25926
G1 X154.928 Y106.418 E7.29165
G1 X154.755 Y105.686 E7.31666
G1 X154.545 Y104.358 E7.36138
G1 X154.5 Y103.887 E7.37712
G1 X154.456 Y102.92 E7.40932
G1 X154.483 Y102.138 E7.43534
G1 X154.572 Y100.863 E7.47785
G1 X154.712 Y98.338 E7.56196
G1 X154.793 Y94.464 E7.69084
G1 X154.796 Y64.027 E8.70318
G1 X154.81 Y63.278 E8.72809
G1 X154.873 Y62.308 E8.76042
G1 X155.02 Y61.345 E8.79283
G1 X155.253 Y60.399 E8.82523
G1 X155.555 Y59.513 E8.85636
G0 F6000 X155.934 Y59.642
G1 F1200 X156.248 Y58.918 E8.88261
G1 X156.419 Y58.562 E8.89575
G1 X156.863 Y57.735 E8.92697
G1 X157.379 Y56.951 E8.95818
G1 X157.962 Y56.215 E8.98941
G1 X158.582 Y55.559 E9.01943
G1 X159.309 Y54.915 E9.05174
G1 X159.969 Y54.422 E9.07914
G1 X160.264 Y54.22 E9.09103
G1 X161.062 Y53.724 E9.12228
G1 X161.867 Y53.316 E9.1523
G1 X162.772 Y52.955 E9.1847
G1 X163.782 Y52.653 E9.21976
G1 X164.769 Y52.451 E9.25327
G1 X166.104 Y52.322 E9.29788
G1 X169.147 Y52.223 E9.39915
G1 X171.643 Y52.066 E9.48233
G1 X174.166 Y51.836 E9.56659
G1 X176.662 Y51.536 E9.65021
G1 X179.182 Y51.162 E9.73494
G1 X181.627 Y50.727 E9.81754
G1 X184.169 Y50.201 E9.90387
G1 X186.559 Y49.637 E9.98555
G1 X189.025 Y48.978 E10.07045
G1 X192.314 Y47.983 E10.18474
G1 X193.238 Y47.686 E10.21702
G1 X194.144 Y47.439 E10.24825
G1 X195.07 Y47.274 E10.27954
G1 X196.155 Y47.185 E10.31574
G1 X196.794 Y47.17 E10.337
G1 X215.771 Y47.17 E10.96818
G1 X216.633 Y47.182 E10.99685
G1 X217.57 Y47.238 E11.02807
G1 X218.498 Y47.377 E11.05928
G1 X219.411 Y47.598 E11.09053
G1 X220.267 Y47.886 E11.12057
G1 X221.159 Y48.276 E11.15295
G1 X221.98 Y48.729 E11.18413
G1 X222.731 Y49.231 E11.21418
G1 X223.49 Y49.843 E11.24661
G1 X224.164 Y50.496 E11.27782
G1 X224.778 Y51.205 E11.30901
G1 X225.328 Y51.966 E11.34024
G1 X225.79 Y52.742 E11.37028
G1 X226.213 Y53.619 E11.40267
G1 X226.542 Y54.497 E11.43385
G1 X226.793 Y55.402 E11.46509
G1 X226.964 Y56.329 E11.49644
G1 X227.059 Y57.456 E11.53406
G1 X227.073 Y58.096 E11.55535
G1 X227.072 Y110.375 E13.29416
G1 X227.062 Y111.12 E13.31894
G1 X227.008 Y112.057 E13.35015
G1 X226.87 Y112.986 E13.38139
G1 X226.651 Y113.898 E13.41259
G1 X226.353 Y114.788 E13.4438
G1 X225.976 Y115.648 E13.47503
G1 X225.526 Y116.47 E13.5062
G1 X225.004 Y117.251 E13.53745
G1 X224.415 Y117.981 E13.56865
G1 X223.79 Y118.632 E13.59866
G1 X223.055 Y119.273 E13.6311
G1 X222.295 Y119.823 E13.6623
G1 X221.489 Y120.304 E13.69352
G1 X220.644 Y120.712 E13.72473
G1 X219.766 Y121.043 E13.75594
G1 X218.862 Y121.296 E13.78716
G1 X217.935 Y121.468 E13.81852
G1 X216.784 Y121.566 E13.85694
G1 X216.143 Y121.58 E13.87826
G1 X197.015 Y121.579 E14.51446
G1 X196.29 Y121.567 E14.53858
G1 X195.354 Y121.51 E14.56977
G1 X194.426 Y121.369 E14.60099
G1 X193.517 Y121.148 E14.6321
G1 X192.809 Y120.915 E14.65689
G1 X191.746 Y120.524 E14.69457
G1 X189.269 Y119.65 E14.78193
G1 X186.843 Y118.871 E14.86668
G1 X184.431 Y118.169 E14.95023
G1 X181.963 Y117.528 E15.03504
G1 X179.505 Y116.963 E15.11892
G1 X177.023 Y116.465 E15.20312
G1 X174.528 Y116.039 E15.2873
G1 X172.044 Y115.686 E15.37075
G1 X169.534 Y115.402 E15.45477
G1 X167.018 Y115.187 E15.53876
G1 X165.984 Y115.129 E15.5732
G1 X165.031 Y115.061 E15.60498
G1 X164.099 Y114.952 E15.63619
G1 X163.181 Y114.76 E15.66738
G1 X162.282 Y114.488 E15.69862
G1 X161.411 Y114.138 E15.72984
G1 X160.575 Y113.712 E15.76105
G1 X159.78 Y113.213 E15.79227
G1 X159.031 Y112.646 E15.82351
G1 X158.338 Y112.016 E15.85466
G1 X157.701 Y111.327 E15.88587
G1 X157.127 Y110.583 E15.91713
G1 X156.622 Y109.792 E15.94834
G1 X156.189 Y108.959 E15.97957
G1 X155.844 Y108.125 E16.00958
G1 X155.568 Y107.254 E16.03997
G1 X155.317 Y106.325 E16.07198
G1 X155.15 Y105.623 E16.09598
G1 X154.943 Y104.32 E16.13986
G1 X154.9 Y103.868 E16.15496
G1 X154.856 Y102.934 E16.18606
G1 X154.882 Y102.166 E16.21162
G1 X154.971 Y100.891 E16.25413
G1 X155.112 Y98.346 E16.33891
G1 X155.193 Y94.472 E16.46779
G1 X155.196 Y64.034 E17.48016
G1 X155.209 Y63.303 E17.50447
G1 X155.268 Y62.368 E17.53563
G1 X155.409 Y61.44 E17.56685
G1 X155.632 Y60.528 E17.59808
G1 X155.934 Y59.642 E17.62921
G0 F6000 X156.301 Y59.801
G1 F1200 X156.609 Y59.091 E17.65496
G1 X156.772 Y58.751 E17.6675
G1 X157.198 Y57.954 E17.69755
G1 X157.693 Y57.199 E17.72758
G1 X158.253 Y56.49 E17.75763
G1 X158.873 Y55.834 E17.78765
G1 X159.549 Y55.235 E17.81769
G1 X160.195 Y54.752 E17.84452
G1 X160.476 Y54.559 E17.85586
G1 X161.243 Y54.081 E17.88592
G1 X162.048 Y53.673 E17.91593
G1 X162.887 Y53.338 E17.94598
G1 X163.862 Y53.045 E17.97984
G1 X164.849 Y52.843 E18.01335
G1 X166.117 Y52.722 E18.05572
G1 X169.16 Y52.623 E18.15698
G1 X171.668 Y52.465 E18.24056
G1 X174.214 Y52.233 E18.32559
G1 X176.721 Y51.932 E18.40958
G1 X179.241 Y51.558 E18.49431
G1 X181.707 Y51.119 E18.57762
G1 X184.25 Y50.593 E18.66399
G1 X186.651 Y50.026 E18.74604
G1 X189.141 Y49.361 E18.83176
G1 X192.437 Y48.364 E18.9463
G1 X193.344 Y48.072 E18.97799
G1 X194.215 Y47.833 E19.00803
G1 X195.103 Y47.673 E19.03804
G1 X196.164 Y47.585 E19.07345
G1 X196.803 Y47.57 E19.09471
G1 X215.766 Y47.57 E19.72542
G1 X216.61 Y47.581 E19.75349
G1 X217.512 Y47.634 E19.78355
G1 X218.405 Y47.766 E19.81357
G1 X219.283 Y47.977 E19.8436
G1 X220.139 Y48.265 E19.87364
G1 X220.966 Y48.627 E19.90367
G1 X221.758 Y49.062 E19.93372
G1 X222.509 Y49.564 E19.96377
G1 X223.212 Y50.131 E19.99381
G1 X223.862 Y50.758 E20.02384
G1 X224.454 Y51.44 E20.05388
G1 X224.984 Y52.171 E20.08391
G1 X225.446 Y52.947 E20.11395
G1 X225.839 Y53.76 E20.14398
G1 X226.157 Y54.605 E20.17401
G1 X226.4 Y55.475 E20.20406
G1 X226.565 Y56.363 E20.2341
G1 X226.66 Y57.49 E20.27171
G1 X226.673 Y58.096 E20.29188
G1 X226.672 Y110.37 E22.03052
G1 X226.663 Y111.097 E22.0547
G1 X226.612 Y111.999 E22.08475
G1 X226.481 Y112.893 E22.1148
G1 X226.272 Y113.771 E22.14482
G1 X225.986 Y114.628 E22.17487
G1 X225.625 Y115.456 E22.20491
G1 X225.193 Y116.248 E22.23491
G1 X224.692 Y117 E22.26497
G1 X224.126 Y117.704 E22.29501
G1 X223.501 Y118.355 E22.32503
G1 X222.82 Y118.949 E22.35508
G1 X222.089 Y119.48 E22.38514
G1 X221.315 Y119.944 E22.41515
G1 X220.502 Y120.338 E22.4452
G1 X219.658 Y120.658 E22.47522
G1 X218.788 Y120.903 E22.50528
G1 X217.901 Y121.069 E22.5353
G1 X216.75 Y121.167 E22.57372
G1 X216.143 Y121.18 E22.59391
G1 X197.021 Y121.179 E23.22991
G1 X196.314 Y121.168 E23.25343
G1 X195.413 Y121.114 E23.28345
G1 X194.52 Y120.98 E23.31348
G1 X193.642 Y120.768 E23.34352
G1 X192.947 Y120.54 E23.36785
G1 X191.879 Y120.147 E23.4057
G1 X189.391 Y119.269 E23.49346
G1 X186.965 Y118.49 E23.5782
G1 X184.538 Y117.784 E23.66227
G1 X182.053 Y117.138 E23.74767
G1 X179.595 Y116.573 E23.83156
G1 X177.102 Y116.073 E23.91612
G1 X174.584 Y115.643 E24.00109
G1 X172.1 Y115.29 E24.08453
G1 X169.568 Y115.003 E24.16929
G1 X167.052 Y114.789 E24.25327
G1 X166.012 Y114.73 E24.28792
G1 X165.077 Y114.664 E24.31909
G1 X164.18 Y114.56 E24.34913
G1 X163.296 Y114.377 E24.37915
G1 X162.431 Y114.117 E24.4092
G1 X161.592 Y113.781 E24.43925
G1 X160.787 Y113.373 E24.46927
G1 X160.021 Y112.894 E24.49932
G1 X159.3 Y112.35 E24.52936
G1 X158.631 Y111.744 E24.55938
G1 X158.017 Y111.082 E24.58941
G1 X157.464 Y110.367 E24.61948
G1 X156.977 Y109.607 E24.6495
G1 X156.559 Y108.806 E24.67955
G1 X156.214 Y107.972 E24.70957
G1 X155.954 Y107.15 E24.73824
G1 X155.706 Y106.232 E24.76987
G1 X155.545 Y105.56 E24.79286
G1 X155.338 Y104.257 E24.83674
G1 X155.3 Y103.849 E24.85037
G1 X155.256 Y102.947 E24.8804
G1 X155.281 Y102.194 E24.90546
G1 X155.37 Y100.919 E24.94797
G1 X155.512 Y98.354 E25.03341
G1 X155.593 Y94.48 E25.16229
G1 X155.596 Y64.041 E26.1747
G1 X155.608 Y63.328 E26.19841
G1 X155.664 Y62.427 E26.22844
G1 X155.798 Y61.534 E26.25847
G1 X156.011 Y60.656 E26.28852
G1 X156.301 Y59.801 E26.31855
G1 F2700 E21.31855
;MESH:DJE3H_0.4_case_Top_Generic_PETG_5h46min_-_RS5.2_43g.3mf(2)
G0 F6000 X165.236 Y63.13
G0 X166.214 Y63.597
G0 X166.793 Y102.588
;TYPE:WALL-INNER
G1 F2700 E26.31855
G1 F1200 X186.233 Y102.587 E26.96513
G1 X186.233 Y63.896 E28.252
G1 X166.795 Y63.896 E28.89851
G1 X166.793 Y102.588 E30.18541
G0 F6000 X166.393 Y102.988
G1 F1200 X186.633 Y102.987 E30.85859
G1 X186.633 Y63.643 E32.16718
G1 X186.526 Y63.496 E32.17323
G1 X166.593 Y63.496 E32.8362
G1 X166.472 Y63.535 E32.84043
G1 X166.395 Y63.64 E32.84476
G1 X166.393 Y102.988 E34.15348
G0 F6000 X165.993 Y103.388
;TYPE:WALL-OUTER
G1 F1200 X187.033 Y103.387 E34.85327
G1 X187.033 Y63.553 E36.17816
G1 X186.927 Y63.332 E36.18631
G1 X186.696 Y63.144 E36.19622
G1 X186.502 Y63.096 E36.20286
G1 X166.531 Y63.096 E36.8671
G1 X166.264 Y63.181 E36.87642
G1 X166.096 Y63.339 E36.88409
G1 X165.995 Y63.549 E36.89184
G1 X165.993 Y103.388 E38.21689
G0 F6000 X166.263 Y103.118
G0 X166.894 Y102.227
G0 X167.153 Y102.228
;TYPE:SKIN
G1 F1200 X167.155 Y64.256 E39.47985
G1 X185.873 Y64.256 E40.10241
G1 X185.873 Y102.227 E41.36533
G1 X167.153 Y102.228 E41.98796
G0 F6000 X167.647 Y102.027
G1 F1200 X167.352 Y101.732 E42.00184
G0 F6000 X167.352 Y101.167
G1 F1200 X168.212 Y102.027 E42.04229
G0 F6000 X168.778 Y102.027
G1 F1200 X167.352 Y100.601 E42.10936
G0 F6000 X167.352 Y100.035
G1 F1200 X169.344 Y102.027 E42.20306
G0 F6000 X169.909 Y102.027
G1 F1200 X167.352 Y99.47 E42.32333
G0 F6000 X167.352 Y98.904
G1 F1200 X170.475 Y102.027 E42.47023
G0 F6000 X171.041 Y102.027
G1 F1200 X167.352 Y98.338 E42.64375
G0 F6000 X167.352 Y97.773
G1 F1200 X171.607 Y102.027 E42.84387
G0 F6000 X172.172 Y102.027
G1 F1200 X167.352 Y97.207 E43.07059
G0 F6000 X167.352 Y96.641
G1 F1200 X172.738 Y102.027 E43.32393
G0 F6000 X173.304 Y102.027
G1 F1200 X167.352 Y96.076 E43.60387
G0 F6000 X167.352 Y95.51
G1 F1200 X173.869 Y102.027 E43.91041
G0 F6000 X174.435 Y102.027
G1 F1200 X167.352 Y94.944 E44.24357
G0 F6000 X167.352 Y94.378
G1 F1200 X175.001 Y102.027 E44.60335
G0 F6000 X175.566 Y102.027
G1 F1200 X167.352 Y93.813 E44.98972
G0 F6000 X167.352 Y93.247
G1 F1200 X176.132 Y102.027 E45.4027
G0 F6000 X176.697 Y102.027
G1 F1200 X167.352 Y92.681 E45.84228
G0 F6000 X167.352 Y92.116
G1 F1200 X177.263 Y102.027 E46.30847
G0 F6000 X177.828 Y102.027
G1 F1200 X167.352 Y91.55 E46.80125
G0 F6000 X167.352 Y90.984
G1 F1200 X178.394 Y102.027 E47.32065
G0 F6000 X178.96 Y102.027
G1 F1200 X167.352 Y90.419 E47.86666
G0 F6000 X167.352 Y89.853
G1 F1200 X179.525 Y102.027 E48.43926
G0 F6000 X180.091 Y102.027
G1 F1200 X167.353 Y89.288 E49.03844
G0 F6000 X167.353 Y88.722
G1 F1200 X180.657 Y102.027 E49.66425
G0 F6000 X181.222 Y102.027
G1 F1200 X167.353 Y88.157 E50.31663
G0 F6000 X167.353 Y87.591
G1 F1200 X181.788 Y102.027 E50.99563
G0 F6000 X182.354 Y102.027
G1 F1200 X167.353 Y87.025 E51.70125
G0 F6000 X167.353 Y86.46
G1 F1200 X182.92 Y102.027 E52.43348
G0 F6000 X183.485 Y102.027
G1 F1200 X167.353 Y85.894 E53.1923
G0 F6000 X167.353 Y85.328
G1 F1200 X184.051 Y102.027 E53.97774
G0 F6000 X184.617 Y102.027
G1 F1200 X167.353 Y84.763 E54.78979
G0 F6000 X167.353 Y84.197
G1 F1200 X185.182 Y102.027 E55.62844
G0 F6000 X185.672 Y101.95
G1 F1200 X167.353 Y83.631 E56.49011
G0 F6000 X167.353 Y83.065
G1 F1200 X185.672 Y101.384 E57.35177
G0 F6000 X185.672 Y100.819
G1 F1200 X167.353 Y82.5 E58.21344
G0 F6000 X167.353 Y81.934
G1 F1200 X185.672 Y100.253 E59.07511
G0 F6000 X185.672 Y99.687
G1 F1200 X167.353 Y81.368 E59.93678
G0 F6000 X167.353 Y80.803
G1 F1200 X185.672 Y99.122 E60.79845
G0 F6000 X185.672 Y98.556
G1 F1200 X167.353 Y80.237 E61.66012
G0 F6000 X167.353 Y79.671
G1 F1200 X185.672 Y97.99 E62.52179
G0 F6000 X185.672 Y97.425
G1 F1200 X167.353 Y79.106 E63.38346
G0 F6000 X167.353 Y78.54
G1 F1200 X185.672 Y96.859 E64.24513
G0 F6000 X185.672 Y96.293
G1 F1200 X167.353 Y77.974 E65.1068
G0 F6000 X167.353 Y77.409
G1 F1200 X185.672 Y95.728 E65.96847
G0 F6000 X185.672 Y95.162
G1 F1200 X167.353 Y76.844 E66.83012
G0 F6000 X167.353 Y76.278
G1 F1200 X185.672 Y94.596 E67.69176
G0 F6000 X185.672 Y94.031
G1 F1200 X167.353 Y75.712 E68.55343
G0 F6000 X167.353 Y75.147
G1 F1200 X185.672 Y93.465 E69.41508
G0 F6000 X185.672 Y92.899
G1 F1200 X167.353 Y74.581 E70.27672
G0 F6000 X167.353 Y74.015
