;FLAVOR:Marlin
;TIME:912
;Filament used: 0.613821m
;Layer height: 0.2
;MINX:153.514
;MINY:13.945
;MINZ:0.2
;MAXX:201.993
;MAXY:59.075
;MAXZ:8.4
;TARGET_MACHINE.NAME:Creality Ender-3
;Generated with Cura_SteamEngine 5.6.0
M140 S70
M105
M190 S70
M104 S200
M105
M109 S200
M82 ;absolute extrusion mode
; Ender 3 Custom Start G-code
; Código de Início Personalizado para Ender 3 (@DjEdu28)
G92 E0 ; Define a posição atual do extrusor como zero
G28 ; Move cada eixo para o seu ponto de origem
G1 Z2.0 F3000 ; Move o eixo Z para cima para evitar arranhar a cama de impressão
G1 X0.1 Y20 Z0.3 F5000.0 ; Move para a posição inicial
G1 X0.1 Y200.0 Z0.3 F1500.0 E15 ; Desenhe a primeira linha
G1 X0.4 Y200.0 Z0.3 F5000.0 ; Mova um pouco para o lado
G1 X0.4 Y20 Z0.3 F1500.0 E30 ; Desenhe a segunda linha
G92 E0 ; Define a posição atual do extrusor como zero
G1 Z2.0 F3000 ; Move o eixo Z para cima para evitar arranhar a cama de impressão
G1 X5 Y20 Z0.3 F5000.0 ; Mova para o lado para evitar que o filamento fique esmagado
; Fim do inicio do Início Personalizado para Ender 3
G92 E0
G92 E0
G1 F2700 E-5
;LAYER_COUNT:42
;LAYER:0
M107
G0 F6000 X153.856 Y26.299 Z0.2
;TYPE:SKIRT
G1 F2700 E0
G1 F1200 X153.963 Y25.666 E0.02135
G1 X154.16 Y24.671 E0.05509
G1 X154.347 Y23.86 E0.08277
G1 X154.713 Y22.643 E0.12504
G1 X154.856 Y22.255 E0.13879
G1 X155.228 Y21.37 E0.17072
G1 X155.781 Y20.341 E0.20958
G1 X156.005 Y19.975 E0.22385
G1 X156.554 Y19.163 E0.25645
G1 X157.253 Y18.312 E0.29308
G1 X157.525 Y18.015 E0.30647
G1 X158.192 Y17.348 E0.33785
G1 X159.098 Y16.6 E0.37692
G1 X159.464 Y16.331 E0.39203
G1 X160.248 Y15.807 E0.42339
G1 X161.384 Y15.202 E0.4662
G1 X161.765 Y15.029 E0.48012
G1 X162.671 Y14.666 E0.51258
G1 X163.705 Y14.357 E0.54848
G1 X164.1 Y14.261 E0.562
G1 X165.09 Y14.07 E0.59553
G1 X166.422 Y13.956 E0.63999
G1 X166.969 Y13.945 E0.65819
G1 X167.907 Y13.969 E0.6894
G1 X168.834 Y14.073 E0.72043
G1 X169.199 Y14.131 E0.73272
G1 X170.123 Y14.32 E0.76409
G1 X171.283 Y14.677 E0.80445
G1 X171.64 Y14.81 E0.81713
G1 X172.539 Y15.192 E0.84961
G1 X173.419 Y15.664 E0.88283
G1 X173.876 Y15.939 E0.90057
G1 X174.693 Y16.482 E0.93319
G1 X175.58 Y17.203 E0.97121
G1 X176.358 Y17.908 E1.00613
G1 X177.066 Y18.566 E1.03828
G1 X178.962 Y20.231 E1.12221
G1 X180.886 Y21.829 E1.20539
G1 X183.529 Y23.884 E1.31674
G1 X184.115 Y24.323 E1.3411
G1 X185.506 Y25.394 E1.39949
G1 X187.506 Y26.849 E1.48175
G1 X189.588 Y28.272 E1.56562
G1 X191.695 Y29.629 E1.64898
G1 X194.341 Y31.219 E1.75165
G1 X195.058 Y31.635 E1.77922
G1 X195.707 Y32.039 E1.80465
G1 X196.472 Y32.574 E1.8357
G1 X197.019 Y33.022 E1.85922
G1 X197.401 Y33.356 E1.87609
G1 X198.075 Y34.001 E1.90712
G1 X198.555 Y34.534 E1.93098
G1 X198.881 Y34.922 E1.94783
G1 X199.45 Y35.665 E1.97896
G1 X199.902 Y36.364 E2.00665
G1 X200.171 Y36.817 E2.02417
G1 X200.597 Y37.613 E2.0542
G1 X200.905 Y38.314 E2.07966
G1 X201.091 Y38.778 E2.09629
G1 X201.398 Y39.66 E2.12735
G1 X201.606 Y40.451 E2.15455
G1 X201.715 Y40.951 E2.17157
G1 X201.875 Y41.871 E2.20263
G1 X201.947 Y42.62 E2.22766
G1 X201.978 Y43.127 E2.24455
G1 X201.993 Y44.03 E2.27459
G1 X201.943 Y44.856 E2.30212
G1 X201.892 Y45.363 E2.31906
G1 X201.763 Y46.256 E2.34907
G1 X201.591 Y47.028 E2.37538
G1 X201.461 Y47.52 E2.39231
G1 X201.174 Y48.442 E2.42442
G1 X200.912 Y49.097 E2.44789
G1 X200.709 Y49.559 E2.46467
G1 X200.281 Y50.428 E2.49689
G1 X199.872 Y51.113 E2.52342
G1 X199.595 Y51.539 E2.54032
G1 X199.033 Y52.325 E2.57246
G1 X198.583 Y52.861 E2.59574
G1 X198.237 Y53.247 E2.61298
G1 X197.605 Y53.893 E2.64304
G1 X196.931 Y54.479 E2.67274
G1 X196.524 Y54.803 E2.69005
G1 X195.77 Y55.352 E2.72107
G1 X195.173 Y55.723 E2.74445
G1 X194.784 Y55.947 E2.75938
G1 X193.715 Y56.486 E2.7992
G1 X192.884 Y56.851 E2.82938
G1 X192.331 Y57.075 E2.84923
G1 X191.235 Y57.483 E2.88813
G1 X190.595 Y57.699 E2.91059
G1 X189.582 Y58.005 E2.94579
G1 X188.803 Y58.217 E2.97264
G1 X188.385 Y58.321 E2.98697
G1 X187.57 Y58.499 E3.01471
G1 X186.634 Y58.676 E3.0464
G1 X185.815 Y58.802 E3.07396
G1 X184.974 Y58.901 E3.10212
G1 X183.799 Y59.006 E3.14136
G1 X183.148 Y59.045 E3.16305
G1 X182.161 Y59.072 E3.19589
G1 X181.569 Y59.075 E3.21558
G1 X180.321 Y59.031 E3.25711
G1 X179.877 Y59.006 E3.2719
G1 X179.046 Y58.939 E3.29963
G1 X178.447 Y58.872 E3.31968
G1 X177.318 Y58.711 E3.35761
G1 X176.431 Y58.554 E3.38757
G1 X175.739 Y58.411 E3.41107
G1 X175.072 Y58.255 E3.43386
G1 X174.679 Y58.152 E3.44737
G1 X173.498 Y57.813 E3.48824
G1 X173.016 Y57.66 E3.50505
G1 X172.374 Y57.44 E3.52763
G1 X170.924 Y56.875 E3.57939
G1 X170.274 Y56.593 E3.60295
G1 X169.175 Y56.073 E3.64339
G1 X168.584 Y55.768 E3.66551
G1 X167.435 Y55.127 E3.70927
G1 X166.794 Y54.74 E3.73417
G1 X166.094 Y54.287 E3.76191
G1 X165.224 Y53.682 E3.79715
G1 X164.56 Y53.183 E3.82478
G1 X163.836 Y52.599 E3.85572
G1 X162.949 Y51.838 E3.89459
G1 X162.46 Y51.389 E3.91667
G1 X161.659 Y50.606 E3.95392
G1 X161.167 Y50.095 E3.97752
G1 X160.343 Y49.176 E4.01857
G1 X159.911 Y48.662 E4.0409
G1 X159.291 Y47.876 E4.0742
G1 X158.906 Y47.354 E4.09577
G1 X158.222 Y46.367 E4.13571
G1 X157.816 Y45.732 E4.16078
G1 X157.123 Y44.563 E4.20598
G1 X156.755 Y43.888 E4.23155
G1 X156.242 Y42.86 E4.26976
G1 X155.954 Y42.23 E4.2928
G1 X155.491 Y41.126 E4.33262
G1 X155.24 Y40.464 E4.35617
G1 X154.862 Y39.36 E4.39498
G1 X154.655 Y38.685 E4.41846
G1 X154.34 Y37.516 E4.45873
G1 X154.179 Y36.828 E4.48223
G1 X153.953 Y35.694 E4.52069
G1 X153.845 Y35.051 E4.54238
G1 X153.702 Y34.01 E4.57732
G1 X153.633 Y33.348 E4.59946
G1 X153.549 Y32.203 E4.63765
G1 X153.522 Y31.502 E4.66098
G1 X153.514 Y30.307 E4.70073
G1 X153.537 Y29.564 E4.72545
G1 X153.623 Y28.213 E4.77048
G1 X153.699 Y27.454 E4.79585
G1 X153.856 Y26.299 E4.83462
G0 F6000 X154.355 Y25.744
G1 F1200 X154.55 Y24.761 E4.86795
G1 X154.737 Y23.95 E4.89563
G1 X155.089 Y22.781 E4.93623
G1 X155.225 Y22.41 E4.94938
G1 X155.597 Y21.525 E4.98131
G1 X156.122 Y20.55 E5.01814
G1 X156.337 Y20.198 E5.03186
G1 X156.863 Y19.417 E5.06317
G1 X157.548 Y18.582 E5.0991
G1 X157.808 Y18.298 E5.1119
G1 X158.475 Y17.631 E5.14328
G1 X159.335 Y16.922 E5.18035
G1 X159.686 Y16.664 E5.19484
G1 X160.47 Y16.14 E5.2262
G1 X161.55 Y15.566 E5.26688
G1 X161.914 Y15.4 E5.28019
G1 X162.786 Y15.049 E5.31145
G1 X163.8 Y14.746 E5.34665
G1 X164.177 Y14.654 E5.35956
G1 X165.124 Y14.469 E5.39165
G1 X166.456 Y14.355 E5.43611
G1 X166.959 Y14.345 E5.45285
G1 X167.862 Y14.367 E5.48289
G1 X168.789 Y14.471 E5.51391
G1 X169.119 Y14.523 E5.52503
G1 X170.043 Y14.712 E5.55639
G1 X171.144 Y15.052 E5.59472
G1 X171.484 Y15.178 E5.60678
G1 X172.35 Y15.545 E5.63806
G1 X173.213 Y16.007 E5.67062
G1 X173.655 Y16.272 E5.68776
G1 X174.441 Y16.793 E5.71913
G1 X175.311 Y17.499 E5.75639
G1 X176.086 Y18.201 E5.79117
G1 X176.802 Y18.867 E5.82369
G1 X178.706 Y20.539 E5.90797
G1 X180.63 Y22.137 E5.99116
G1 X183.289 Y24.204 E6.10318
G1 X183.871 Y24.64 E6.12736
G1 X185.262 Y25.711 E6.18575
G1 X187.28 Y27.179 E6.26875
G1 X189.371 Y28.608 E6.35299
G1 X191.489 Y29.972 E6.43678
G1 X194.14 Y31.565 E6.53964
G1 X194.847 Y31.975 E6.56683
G1 X195.478 Y32.367 E6.59153
G1 X196.219 Y32.884 E6.62159
G1 X196.756 Y33.323 E6.64466
G1 X197.124 Y33.645 E6.66092
G1 X197.798 Y34.29 E6.69195
G1 X198.249 Y34.791 E6.71437
G1 X198.563 Y35.165 E6.73061
G1 X199.132 Y35.908 E6.76174
G1 X199.558 Y36.568 E6.78786
G1 X199.818 Y37.006 E6.80481
G1 X200.244 Y37.802 E6.83483
G1 X200.534 Y38.463 E6.85884
G1 X200.713 Y38.91 E6.87486
G1 X201.011 Y39.762 E6.90488
G1 X201.215 Y40.537 E6.93153
G1 X201.321 Y41.02 E6.94798
G1 X201.477 Y41.91 E6.97803
G1 X201.548 Y42.644 E7.00256
G1 X201.578 Y43.134 E7.01889
G1 X201.593 Y44.037 E7.04892
G1 X201.545 Y44.816 E7.07488
G1 X201.496 Y45.306 E7.09126
G1 X201.367 Y46.199 E7.12127
G1 X201.204 Y46.926 E7.14605
G1 X201.079 Y47.401 E7.16239
G1 X200.802 Y48.294 E7.19349
G1 X200.546 Y48.936 E7.21647
G1 X200.35 Y49.383 E7.23271
G1 X199.938 Y50.223 E7.26383
G1 X199.537 Y50.895 E7.28985
G1 X199.269 Y51.307 E7.3062
G1 X198.726 Y52.068 E7.33729
G1 X198.285 Y52.594 E7.36012
G1 X197.951 Y52.967 E7.37678
G1 X197.319 Y53.613 E7.40684
G1 X196.681 Y54.166 E7.43492
G1 X196.288 Y54.48 E7.45165
G1 X195.559 Y55.012 E7.48167
G1 X194.973 Y55.376 E7.50461
G1 X194.584 Y55.6 E7.51954
G1 X193.554 Y56.12 E7.55792
G1 X192.734 Y56.48 E7.5877
G1 X192.191 Y56.7 E7.60719
G1 X191.107 Y57.104 E7.64566
G1 X190.479 Y57.316 E7.66771
G1 X189.466 Y57.622 E7.70291
G1 X188.707 Y57.829 E7.72907
G1 X188.299 Y57.93 E7.74305
G1 X187.495 Y58.106 E7.77043
G1 X186.573 Y58.281 E7.80164
G1 X185.768 Y58.405 E7.82873
G1 X184.938 Y58.503 E7.85653
G1 X183.775 Y58.607 E7.89536
G1 X183.137 Y58.645 E7.91662
G1 X182.159 Y58.672 E7.94916
G1 X181.583 Y58.675 E7.96832
G1 X180.344 Y58.632 E8.00955
G1 X179.909 Y58.607 E8.02405
G1 X179.09 Y58.541 E8.05137
G1 X178.503 Y58.476 E8.07102
G1 X177.388 Y58.317 E8.10848
G1 X176.512 Y58.162 E8.13807
G1 X175.83 Y58.021 E8.16123
G1 X175.174 Y57.868 E8.18363
G1 X174.789 Y57.767 E8.19687
G1 X173.619 Y57.432 E8.23735
G1 X173.146 Y57.282 E8.25385
G1 X172.519 Y57.067 E8.2759
G1 X171.083 Y56.508 E8.32715
G1 X170.445 Y56.232 E8.35027
G1 X169.358 Y55.717 E8.39028
G1 X168.779 Y55.419 E8.41194
G1 X167.642 Y54.785 E8.45524
G1 X167.011 Y54.404 E8.47975
G1 X166.322 Y53.958 E8.50705
G1 X165.464 Y53.362 E8.5418
G1 X164.811 Y52.872 E8.56895
G1 X164.097 Y52.296 E8.59946
G1 X163.22 Y51.543 E8.63791
G1 X162.731 Y51.094 E8.65999
G1 X161.947 Y50.329 E8.69642
G1 X161.465 Y49.828 E8.71955
G1 X160.649 Y48.918 E8.7602
G1 X160.225 Y48.414 E8.78211
G1 X159.613 Y47.638 E8.81498
G1 X159.235 Y47.126 E8.83614
G1 X158.559 Y46.151 E8.8756
G1 X158.16 Y45.528 E8.90021
G1 X157.474 Y44.371 E8.94495
G1 X157.113 Y43.709 E8.97003
G1 X156.606 Y42.693 E9.00779
G1 X156.323 Y42.075 E9.0304
G1 X155.865 Y40.984 E9.06976
G1 X155.618 Y40.334 E9.09288
G1 X155.244 Y39.243 E9.13124
G1 X155.041 Y38.581 E9.15427
G1 X154.729 Y37.425 E9.1941
G1 X154.571 Y36.75 E9.21715
G1 X154.347 Y35.628 E9.25521
G1 X154.241 Y34.997 E9.27649
G1 X154.1 Y33.968 E9.31103
G1 X154.032 Y33.319 E9.33274
G1 X153.949 Y32.187 E9.37049
G1 X153.922 Y31.499 E9.39339
G1 X153.914 Y30.319 E9.43264
G1 X153.936 Y29.589 E9.45693
G1 X154.021 Y28.253 E9.50145
G1 X154.095 Y27.508 E9.52636
G1 X154.25 Y26.366 E9.56469
G1 X154.355 Y25.744 E9.58567
G0 F6000 X154.747 Y25.822
G1 F1200 X154.94 Y24.85 E9.61863
G1 X155.12 Y24.065 E9.64541
G1 X155.465 Y22.919 E9.68522
G1 X155.601 Y22.548 E9.69836
G1 X155.949 Y21.715 E9.72839
G1 X156.464 Y20.758 E9.76453
G1 X156.669 Y20.421 E9.77765
G1 X157.172 Y19.671 E9.80769
G1 X157.844 Y18.851 E9.84295
G1 X158.091 Y18.58 E9.85515
G1 X158.729 Y17.94 E9.8852
G1 X159.573 Y17.244 E9.92159
G1 X159.909 Y16.996 E9.93548
G1 X160.658 Y16.493 E9.96549
G1 X161.717 Y15.93 E10.00538
G1 X162.064 Y15.771 E10.01807
G1 X162.901 Y15.432 E10.04811
G1 X163.895 Y15.135 E10.08261
G1 X164.272 Y15.043 E10.09552
G1 X165.158 Y14.868 E10.12556
G1 X166.49 Y14.754 E10.17002
G1 X166.949 Y14.745 E10.18529
G1 X167.852 Y14.767 E10.21533
G1 X168.727 Y14.866 E10.24462
G1 X169.04 Y14.915 E10.25516
G1 X169.925 Y15.094 E10.28519
G1 X171.005 Y15.427 E10.32278
G1 X171.329 Y15.547 E10.33427
G1 X172.161 Y15.898 E10.36431
G1 X173.024 Y16.36 E10.39686
G1 X173.435 Y16.606 E10.4128
G1 X174.189 Y17.104 E10.44285
G1 X175.043 Y17.796 E10.47941
G1 X175.814 Y18.494 E10.514
G1 X176.53 Y19.16 E10.54652
G1 X178.45 Y20.847 E10.63153
G1 X180.374 Y22.445 E10.71472
G1 X183.049 Y24.524 E10.8274
G1 X183.627 Y24.957 E10.85142
G1 X185.018 Y26.028 E10.90981
G1 X187.054 Y27.509 E10.99355
G1 X189.154 Y28.944 E11.07814
G1 X191.283 Y30.315 E11.16237
G1 X193.939 Y31.911 E11.26543
G1 X194.636 Y32.315 E11.29222
G1 X195.249 Y32.695 E11.31621
G1 X195.99 Y33.212 E11.34626
G1 X196.493 Y33.624 E11.36789
G1 X196.848 Y33.934 E11.38356
G1 X197.501 Y34.558 E11.41361
G1 X197.943 Y35.049 E11.43558
G1 X198.246 Y35.409 E11.45123
G1 X198.796 Y36.125 E11.48126
G1 X199.214 Y36.772 E11.50688
G1 X199.465 Y37.195 E11.52324
G1 X199.891 Y37.991 E11.55326
G1 X200.163 Y38.612 E11.57581
G1 X200.335 Y39.042 E11.59122
G1 X200.633 Y39.894 E11.62124
G1 X200.824 Y40.624 E11.64634
G1 X200.927 Y41.089 E11.66218
G1 X201.083 Y41.979 E11.69223
G1 X201.149 Y42.669 E11.71528
G1 X201.178 Y43.141 E11.73101
G1 X201.193 Y44.044 E11.76105
G1 X201.147 Y44.776 E11.78544
G1 X201.1 Y45.249 E11.80125
G1 X200.971 Y46.142 E11.83126
G1 X200.817 Y46.825 E11.85455
G1 X200.697 Y47.283 E11.8703
G1 X200.43 Y48.146 E11.90034
G1 X200.179 Y48.776 E11.9229
G1 X199.991 Y49.207 E11.93854
G1 X199.594 Y50.018 E11.96857
G1 X199.201 Y50.677 E11.99409
G1 X198.943 Y51.075 E12.00987
G1 X198.419 Y51.811 E12.03992
G1 X197.987 Y52.327 E12.0623
G1 X197.665 Y52.687 E12.07836
G1 X197.033 Y53.333 E12.10842
G1 X196.431 Y53.854 E12.1349
G1 X196.052 Y54.157 E12.15104
G1 X195.323 Y54.689 E12.18106
G1 X194.773 Y55.029 E12.20256
G1 X194.384 Y55.253 E12.21749
G1 X193.393 Y55.754 E12.25443
G1 X192.584 Y56.109 E12.28381
G1 X192.051 Y56.325 E12.30294
G1 X190.979 Y56.725 E12.341
G1 X190.363 Y56.933 E12.36262
G1 X189.36 Y57.236 E12.39747
G1 X188.611 Y57.441 E12.4233
G1 X188.213 Y57.539 E12.43693
G1 X187.42 Y57.713 E12.46393
G1 X186.512 Y57.886 E12.49468
G1 X185.721 Y58.008 E12.5213
G1 X184.902 Y58.105 E12.54873
G1 X183.751 Y58.208 E12.58716
G1 X183.126 Y58.245 E12.60799
G1 X182.157 Y58.272 E12.64023
G1 X181.597 Y58.275 E12.65885
G1 X180.367 Y58.233 E12.69979
G1 X179.941 Y58.208 E12.71398
G1 X179.134 Y58.143 E12.74091
G1 X178.559 Y58.08 E12.76015
G1 X177.458 Y57.923 E12.79714
G1 X176.593 Y57.77 E12.82635
G1 X175.921 Y57.631 E12.84918
G1 X175.276 Y57.481 E12.8712
G1 X174.899 Y57.382 E12.88417
G1 X173.74 Y57.051 E12.92426
G1 X173.276 Y56.904 E12.94045
G1 X172.664 Y56.694 E12.96197
G1 X171.242 Y56.141 E13.01271
G1 X170.616 Y55.87 E13.0354
G1 X169.541 Y55.361 E13.07496
G1 X168.974 Y55.07 E13.09616
G1 X167.849 Y54.443 E13.13899
G1 X167.228 Y54.068 E13.16312
G1 X166.55 Y53.63 E13.18997
G1 X165.704 Y53.042 E13.22424
G1 X165.062 Y52.561 E13.25092
G1 X164.357 Y51.992 E13.28105
G1 X163.49 Y51.248 E13.31905
G1 X163.01 Y50.808 E13.34071
G1 X162.235 Y50.052 E13.37672
G1 X161.763 Y49.561 E13.39937
G1 X160.955 Y48.66 E13.43962
G1 X160.539 Y48.166 E13.4611
G1 X159.935 Y47.4 E13.49355
G1 X159.564 Y46.898 E13.51431
G1 X158.896 Y45.935 E13.55329
G1 X158.504 Y45.324 E13.57743
G1 X157.825 Y44.179 E13.62171
G1 X157.471 Y43.53 E13.6463
G1 X156.97 Y42.526 E13.68362
G1 X156.692 Y41.92 E13.70579
G1 X156.239 Y40.841 E13.74471
G1 X155.996 Y40.204 E13.76739
G1 X155.626 Y39.126 E13.8053
G1 X155.427 Y38.477 E13.82788
G1 X155.118 Y37.334 E13.86726
G1 X154.963 Y36.672 E13.88987
G1 X154.741 Y35.562 E13.92752
G1 X154.637 Y34.943 E13.9484
G1 X154.498 Y33.926 E13.98254
G1 X154.431 Y33.29 E14.00381
G1 X154.349 Y32.171 E14.04113
G1 X154.322 Y31.496 E14.06359
G1 X154.314 Y30.331 E14.10234
G1 X154.335 Y29.614 E14.1262
G1 X154.419 Y28.292 E14.17026
G1 X154.491 Y27.562 E14.19466
G1 X154.645 Y26.432 E14.23259
G1 X154.747 Y25.822 E14.25316
G1 F2700 E9.25316
;MESH:Lever.stl
G0 F6000 X170.445 Y36.439
G0 X170.671 Y37.778
G0 X170.874 Y38.223
G0 X171.134 Y38.524
G0 X172.052 Y39.157
;TYPE:WALL-INNER
G1 F2700 E14.25316
G1 F1200 X171.655 Y39.042 E14.26691
G1 X171.416 Y38.928 E14.27571
G1 X171.11 Y38.732 E14.2878
G1 X170.74 Y38.317 E14.30629
G1 X170.514 Y37.819 E14.32448
G1 X170.437 Y37.283 E14.34249
G1 X170.499 Y36.874 E14.35625
G1 X170.574 Y36.629 E14.36477
G1 X170.805 Y36.195 E14.38112
G1 X171.118 Y35.846 E14.39672
G1 X171.555 Y35.571 E14.41389
G1 X172.07 Y35.424 E14.4317
G1 X172.606 Y35.429 E14.44953
G1 X173.129 Y35.587 E14.4677
G1 X173.56 Y35.877 E14.48498
G1 X173.897 Y36.257 E14.50187
G1 X174.131 Y36.772 E14.52069
G1 X174.209 Y37.279 E14.53775
G1 X174.136 Y37.81 E14.55558
G1 X173.92 Y38.288 E14.57302
G1 X173.575 Y38.697 E14.59082
G1 X173.12 Y39.002 E14.60904
G1 X172.594 Y39.158 E14.62729
G1 X172.052 Y39.157 E14.64531
G0 F6000 X171.709 Y38.641
G1 F1200 X171.362 Y38.417 E14.65905
G1 X171.086 Y38.095 E14.67316
G1 X170.903 Y37.715 E14.68718
G1 X170.841 Y37.289 E14.7015
G1 X170.906 Y36.858 E14.716
G1 X171.118 Y36.444 E14.73147
G1 X171.35 Y36.183 E14.74308
G1 X171.686 Y35.955 E14.75659
G1 X172.117 Y35.824 E14.77157
G1 X172.543 Y35.827 E14.78574
G1 X172.953 Y35.951 E14.79999
