;FLAVOR:Marlin
;TIME:18315
;Filament used: 12.7584m
;Layer height: 0.2
;MINX:43.175
;MINY:46.006
;MINZ:0.2
;MAXX:159.845
;MAXY:182.91
;MAXZ:24.4
;TARGET_MACHINE.NAME:Creality Ender-3
;Generated with Cura_SteamEngine 5.6.0
M140 S70
M105
M190 S70
M104 S200
M105
M109 S200
M82 ;absolute extrusion mode
; Ender 3 Custom Start G-code
; Código de Início Personalizado para Ender 3 (@DjEdu28)
G92 E0 ; Define a posição atual do extrusor como zero
G28 ; Move cada eixo para o seu ponto de origem
G1 Z2.0 F3000 ; Move o eixo Z para cima para evitar arranhar a cama de impressão
G1 X0.1 Y20 Z0.3 F5000.0 ; Move para a posição inicial
G1 X0.1 Y200.0 Z0.3 F1500.0 E15 ; Desenhe a primeira linha
G1 X0.4 Y200.0 Z0.3 F5000.0 ; Mova um pouco para o lado
G1 X0.4 Y20 Z0.3 F1500.0 E30 ; Desenhe a segunda linha
G92 E0 ; Define a posição atual do extrusor como zero
G1 Z2.0 F3000 ; Move o eixo Z para cima para evitar arranhar a cama de impressão
G1 X5 Y20 Z0.3 F5000.0 ; Mova para o lado para evitar que o filamento fique esmagado
; Fim do inicio do Início Personalizado para Ender 3
G92 E0
G92 E0
G1 F2700 E-5
;LAYER_COUNT:122
;LAYER:0
M107
G0 F6000 X47.675 Y49.007 Z0.2
;TYPE:SKIRT
G1 F2700 E0
G1 F1200 X48.385 Y48.393 E0.03122
G1 X49.204 Y47.803 E0.06479
G1 X50.043 Y47.307 E0.09721
G1 X50.857 Y46.916 E0.12724
G1 X51.834 Y46.548 E0.16197
G1 X52.738 Y46.298 E0.19316
G1 X53.74 Y46.115 E0.22704
G1 X54.911 Y46.019 E0.26612
G1 X55.518 Y46.006 E0.28631
G1 X147.119 Y46.006 E3.33298
G1 X147.999 Y46.019 E3.36225
G1 X148.971 Y46.078 E3.39464
G1 X149.934 Y46.224 E3.42703
G1 X150.881 Y46.455 E3.45945
G1 X151.769 Y46.755 E3.49063
G1 X152.661 Y47.145 E3.52301
G1 X153.544 Y47.632 E3.55655
G1 X154.295 Y48.134 E3.58659
G1 X155.11 Y48.792 E3.62143
G1 X155.808 Y49.47 E3.6538
G1 X156.444 Y50.207 E3.68617
G1 X157.014 Y50.997 E3.71857
G1 X157.476 Y51.773 E3.74861
G1 X157.93 Y52.715 E3.78339
G1 X158.259 Y53.593 E3.81458
G1 X158.528 Y54.565 E3.84812
G1 X158.705 Y55.531 E3.88079
G1 X158.8 Y56.661 E3.9185
G1 X158.815 Y57.318 E3.94036
G1 X158.815 Y100.252 E5.36835
G1 X158.852 Y102.824 E5.4539
G1 X158.961 Y105.389 E5.53929
G1 X159.135 Y107.852 E5.62142
G1 X159.383 Y110.354 E5.70504
G1 X159.749 Y113.201 E5.80051
G1 X159.83 Y114.243 E5.83527
G1 X159.845 Y114.9 E5.85713
G1 X159.844 Y171.31 E7.73334
G1 X159.833 Y172.073 E7.75872
G1 X159.776 Y173.046 E7.79113
G1 X159.631 Y174.009 E7.82352
G1 X159.402 Y174.955 E7.8559
G1 X159.091 Y175.879 E7.88832
G1 X158.699 Y176.77 E7.9207
G1 X158.231 Y177.622 E7.95303
G1 X157.709 Y178.403 E7.98428
G1 X157.076 Y179.188 E8.01782
G1 X156.451 Y179.839 E8.04783
G1 X155.662 Y180.527 E8.08265
G1 X154.902 Y181.077 E8.11385
G1 X154.035 Y181.594 E8.14743
G1 X153.157 Y182.016 E8.17983
G1 X152.246 Y182.358 E8.21219
G1 X151.307 Y182.619 E8.24461
G1 X150.341 Y182.797 E8.27728
G1 X149.19 Y182.895 E8.3157
G1 X148.515 Y182.91 E8.33815
G1 X54.739 Y182.909 E11.45716
G1 X54.006 Y182.898 E11.48154
G1 X53.034 Y182.841 E11.51392
G1 X52.071 Y182.695 E11.54632
G1 X51.125 Y182.466 E11.57869
G1 X50.201 Y182.154 E11.61113
G1 X49.311 Y181.762 E11.64347
G1 X48.488 Y181.311 E11.67469
G1 X47.649 Y180.75 E11.70826
G1 X46.945 Y180.184 E11.7383
G1 X46.192 Y179.459 E11.77307
G1 X45.555 Y178.723 E11.80544
G1 X45.025 Y177.992 E11.83547
G1 X44.489 Y177.095 E11.87023
G1 X44.067 Y176.217 E11.90263
G1 X43.725 Y175.305 E11.93502
G1 X43.465 Y174.367 E11.9674
G1 X43.287 Y173.398 E12.00017
G1 X43.189 Y172.219 E12.03952
G1 X43.175 Y171.568 E12.06117
G1 X43.176 Y115.109 E13.93901
G1 X43.189 Y114.344 E13.96445
G1 X43.28 Y113.121 E14.00524
G1 X43.477 Y111.641 E14.0549
G1 X43.762 Y109.12 E14.13929
G1 X43.984 Y106.549 E14.22512
G1 X44.123 Y104.1 E14.3067
G1 X44.197 Y101.51 E14.39288
G1 X44.206 Y100.188 E14.43685
G1 X44.207 Y57.515 E15.85616
G1 X44.219 Y56.814 E15.87948
G1 X44.279 Y55.841 E15.9119
G1 X44.426 Y54.88 E15.94424
G1 X44.657 Y53.932 E15.97669
G1 X44.959 Y53.043 E16.00792
G1 X45.366 Y52.121 E16.04144
G1 X45.837 Y51.269 E16.07382
G1 X46.382 Y50.46 E16.10626
G1 X46.973 Y49.732 E16.13745
G1 X47.675 Y49.007 E16.17102
G0 F6000 X47.937 Y49.31
G1 F1200 X48.647 Y48.696 E16.20224
G1 X49.408 Y48.147 E16.23345
G1 X50.216 Y47.668 E16.26469
G1 X51.03 Y47.277 E16.29472
G1 X51.941 Y46.934 E16.3271
G1 X52.845 Y46.684 E16.3583
G1 X53.773 Y46.514 E16.38967
G1 X54.92 Y46.419 E16.42795
G1 X55.527 Y46.406 E16.44815
G1 X147.113 Y46.406 E19.49431
G1 X147.975 Y46.418 E19.52298
G1 X148.912 Y46.474 E19.5542
G1 X149.84 Y46.613 E19.58541
G1 X150.753 Y46.834 E19.61666
G1 X151.609 Y47.122 E19.6467
G1 X152.501 Y47.512 E19.67908
G1 X153.322 Y47.965 E19.71026
G1 X154.073 Y48.467 E19.74031
G1 X154.832 Y49.079 E19.77274
G1 X155.506 Y49.732 E19.80395
G1 X156.12 Y50.441 E19.83514
G1 X156.67 Y51.202 E19.86637
G1 X157.132 Y51.978 E19.89641
G1 X157.555 Y52.855 E19.9288
G1 X157.884 Y53.733 E19.95998
G1 X158.135 Y54.638 E19.99122
G1 X158.306 Y55.565 E20.02257
G1 X158.401 Y56.695 E20.06029
G1 X158.415 Y57.327 E20.08131
G1 X158.415 Y100.252 E21.509
G1 X158.452 Y102.841 E21.59512
G1 X158.561 Y105.406 E21.68051
G1 X158.737 Y107.891 E21.76337
G1 X158.986 Y110.405 E21.8474
G1 X159.35 Y113.232 E21.9422
G1 X159.43 Y114.252 E21.97623
G1 X159.445 Y114.9 E21.99779
G1 X159.444 Y171.305 E23.87382
G1 X159.434 Y172.05 E23.89861
G1 X159.38 Y172.987 E23.92982
G1 X159.242 Y173.916 E23.96106
G1 X159.023 Y174.828 E23.99226
G1 X158.725 Y175.718 E24.02347
G1 X158.348 Y176.578 E24.0547
G1 X157.898 Y177.4 E24.08587
G1 X157.376 Y178.181 E24.11712
G1 X156.787 Y178.911 E24.14831
G1 X156.162 Y179.562 E24.17833
G1 X155.427 Y180.203 E24.21077
G1 X154.667 Y180.753 E24.24197
G1 X153.861 Y181.234 E24.27319
G1 X153.016 Y181.642 E24.3044
G1 X152.138 Y181.973 E24.33561
G1 X151.234 Y182.226 E24.36683
G1 X150.307 Y182.398 E24.39819
G1 X149.156 Y182.496 E24.43661
G1 X148.515 Y182.51 E24.45793
G1 X54.745 Y182.509 E27.57674
G1 X54.029 Y182.499 E27.60055
G1 X53.093 Y182.445 E27.63174
G1 X52.164 Y182.306 E27.66298
G1 X51.252 Y182.087 E27.69417
G1 X50.362 Y181.788 E27.7254
G1 X49.503 Y181.411 E27.7566
G1 X48.68 Y180.96 E27.78782
G1 X47.9 Y180.438 E27.81903
G1 X47.196 Y179.872 E27.84908
G1 X46.494 Y179.197 E27.88147
G1 X45.879 Y178.488 E27.91268
G1 X45.349 Y177.757 E27.94272
G1 X44.849 Y176.921 E27.97511
G1 X44.441 Y176.076 E28.00632
G1 X44.11 Y175.198 E28.03753
G1 X43.858 Y174.294 E28.06875
G1 X43.686 Y173.365 E28.10017
G1 X43.588 Y172.186 E28.13952
G1 X43.575 Y171.568 E28.16008
G1 X43.576 Y115.115 E30.03771
G1 X43.588 Y114.374 E30.06236
G1 X43.677 Y113.174 E30.10238
G1 X43.873 Y111.694 E30.15204
G1 X44.161 Y109.154 E30.23706
G1 X44.382 Y106.583 E30.32289
G1 X44.523 Y104.111 E30.40524
G1 X44.597 Y101.521 E30.49142
G1 X44.606 Y100.191 E30.53566
G1 X44.607 Y57.521 E31.95487
G1 X44.618 Y56.838 E31.97759
G1 X44.675 Y55.901 E32.00881
G1 X44.815 Y54.974 E32.03999
G1 X45.036 Y54.061 E32.07123
G1 X45.338 Y53.172 E32.10246
G1 X45.716 Y52.314 E32.13364
G1 X46.169 Y51.492 E32.16486
G1 X46.693 Y50.712 E32.19611
G1 X47.284 Y49.984 E32.2273
G1 X47.937 Y49.31 E32.25852
G0 F6000 X48.199 Y49.612
G1 F1200 X48.881 Y49.02 E32.28855
G1 X49.613 Y48.491 E32.31859
G1 X50.389 Y48.029 E32.34863
G1 X51.203 Y47.638 E32.37866
G1 X52.048 Y47.319 E32.40871
G1 X52.918 Y47.077 E32.43874
G1 X53.806 Y46.913 E32.46877
G1 X54.929 Y46.819 E32.50626
G1 X55.536 Y46.806 E32.52645
G1 X147.108 Y46.806 E35.57215
G1 X147.952 Y46.817 E35.60022
G1 X148.854 Y46.87 E35.63027
G1 X149.747 Y47.002 E35.6603
G1 X150.625 Y47.213 E35.69033
G1 X151.481 Y47.501 E35.72037
G1 X152.308 Y47.863 E35.7504
G1 X153.1 Y48.298 E35.78045
G1 X153.851 Y48.8 E35.81049
G1 X154.554 Y49.367 E35.84053
G1 X155.204 Y49.994 E35.87057
G1 X155.796 Y50.676 E35.90061
G1 X156.326 Y51.407 E35.93064
G1 X156.788 Y52.183 E35.96068
G1 X157.181 Y52.996 E35.99071
G1 X157.499 Y53.841 E36.02074
G1 X157.742 Y54.711 E36.05078
G1 X157.907 Y55.599 E36.08083
G1 X158.002 Y56.729 E36.11854
G1 X158.015 Y57.336 E36.13874
G1 X158.015 Y100.252 E37.56613
G1 X158.052 Y102.858 E37.65281
G1 X158.161 Y105.423 E37.7382
G1 X158.339 Y107.93 E37.82179
G1 X158.589 Y110.456 E37.90622
G1 X158.951 Y113.264 E38.00039
G1 X159.03 Y114.261 E38.03365
G1 X159.045 Y114.9 E38.05491
G1 X159.044 Y171.3 E39.93078
G1 X159.035 Y172.027 E39.95496
G1 X158.984 Y172.929 E39.98501
G1 X158.853 Y173.823 E40.01506
G1 X158.644 Y174.701 E40.04508
G1 X158.358 Y175.558 E40.07513
G1 X157.997 Y176.386 E40.10518
G1 X157.565 Y177.178 E40.13518
G1 X157.064 Y177.93 E40.16524
G1 X156.498 Y178.634 E40.19528
G1 X155.873 Y179.285 E40.2253
G1 X155.192 Y179.879 E40.25535
G1 X154.461 Y180.41 E40.2854
G1 X153.687 Y180.874 E40.31542
G1 X152.874 Y181.268 E40.34547
G1 X152.03 Y181.588 E40.37549
G1 X151.16 Y181.833 E40.40555
G1 X150.273 Y181.999 E40.43556
G1 X149.122 Y182.097 E40.47398
G1 X148.515 Y182.11 E40.49418
G1 X54.75 Y182.109 E43.61281
G1 X54.052 Y182.1 E43.63603
G1 X53.151 Y182.049 E43.66605
G1 X52.257 Y181.917 E43.6961
G1 X51.379 Y181.708 E43.72612
G1 X50.522 Y181.421 E43.75618
G1 X49.695 Y181.06 E43.78619
G1 X48.902 Y180.627 E43.81625
G1 X48.151 Y180.126 E43.84627
G1 X47.447 Y179.56 E43.87632
G1 X46.796 Y178.934 E43.90635
G1 X46.203 Y178.253 E43.93639
G1 X45.673 Y177.522 E43.96642
G1 X45.209 Y176.747 E43.99646
G1 X44.815 Y175.934 E44.02651
G1 X44.495 Y175.09 E44.05653
G1 X44.251 Y174.22 E44.08659
G1 X44.085 Y173.332 E44.11663
G1 X43.988 Y172.177 E44.15518
G1 X43.975 Y171.568 E44.17544
G1 X43.976 Y115.121 E46.05288
G1 X43.987 Y114.403 E46.07676
G1 X44.074 Y113.226 E46.11602
G1 X44.269 Y111.746 E46.16567
G1 X44.56 Y109.188 E46.25129
G1 X44.78 Y106.617 E46.33712
G1 X44.923 Y104.122 E46.42024
G1 X44.997 Y101.532 E46.50642
G1 X45.006 Y100.194 E46.55092
G1 X45.007 Y57.527 E47.97003
G1 X45.017 Y56.862 E47.99215
G1 X45.071 Y55.96 E48.02221
G1 X45.204 Y55.067 E48.05223
G1 X45.415 Y54.189 E48.08227
G1 X45.704 Y53.333 E48.11232
G1 X46.067 Y52.506 E48.14236
G1 X46.501 Y51.715 E48.17237
G1 X47.004 Y50.964 E48.20243
G1 X47.572 Y50.262 E48.23246
G1 X48.199 Y49.612 E48.2625
G1 F2700 E43.2625
;MESH:DJE3H_0.4_case_Top_Generic_PETG_5h46min_-_RS5.2_43g.3mf(3)
G0 F6000 X77.53 Y71.895
G0 X120.42 Y72.231
G0 X120.844 Y72.287
G0 X121.289 Y72.471
G0 X121.672 Y72.764
G0 X121.965 Y73.147
G0 X122.149 Y73.592
G0 X122.205 Y74.016
G0 X122.205 Y94.664
G0 X122.149 Y95.088
G0 X121.965 Y95.533
G0 X121.727 Y95.843
G0 X120.886 Y96.548
;TYPE:WALL-INNER
G1 F2700 E48.2625
G1 F1200 X120.44 Y96.61 E48.27748
G1 X77.549 Y96.605 E49.70404
G1 X77.159 Y96.479 E49.71767
G1 X76.877 Y96.24 E49.72997
G1 X76.72 Y95.967 E49.74044
G1 X76.657 Y95.684 E49.75008
G1 X76.657 Y72.996 E50.50469
G1 X76.749 Y72.645 E50.51676
G1 X76.877 Y72.44 E50.5248
G1 X77.159 Y72.201 E50.53709
G1 X77.344 Y72.119 E50.54382
G1 X77.655 Y72.07 E50.55429
G1 X120.44 Y72.07 E51.97733
G1 X120.886 Y72.132 E51.9923
G1 X121.37 Y72.336 E52.00977
G1 X121.787 Y72.652 E52.02718
G1 X122.095 Y73.05 E52.04391
G1 X122.307 Y73.554 E52.0621
G1 X122.364 Y73.999 E52.07702
G1 X122.365 Y94.673 E52.76464
G1 X122.306 Y95.136 E52.78016
G1 X122.094 Y95.631 E52.79808
G1 X121.772 Y96.046 E52.81555
G1 X121.368 Y96.345 E52.83226
G1 X120.886 Y96.548 E52.84966
G0 F6000 X120.769 Y96.164
G1 F1200 X120.446 Y96.206 E52.86049
G1 X77.583 Y96.21 E54.28612
G1 X77.357 Y96.132 E54.29407
G1 X77.132 Y95.906 E54.30468
G1 X77.056 Y95.655 E54.3134
G1 X77.056 Y73.025 E55.06608
G1 X77.132 Y72.774 E55.0748
G1 X77.357 Y72.548 E55.08541
G1 X77.583 Y72.47 E55.09336
G1 X120.446 Y72.474 E56.51899
G1 X120.793 Y72.522 E56.53064
G1 X121.163 Y72.678 E56.544
G1 X121.493 Y72.925 E56.55771
G1 X121.759 Y73.274 E56.5723
G1 X121.918 Y73.66 E56.58619
G1 X121.967 Y74.068 E56.59985
G1 X121.965 Y94.649 E57.28438
G1 X121.909 Y95.039 E57.29748
G1 X121.759 Y95.405 E57.31064
G1 X121.493 Y95.755 E57.32526
G1 X121.161 Y96.003 E57.33904
G1 X120.769 Y96.164 E57.35314
G1 F2700 E52.35314
G0 F6000 X120.807 Y96.46
G0 X121.289 Y96.209
G0 X121.672 Y95.916
G0 X121.965 Y95.533
G0 X122.149 Y95.088
G0 X122.205 Y94.664
G0 X122.196 Y93.427
G0 X122.565 Y88.542
G0 X126.931 Y87.835
G0 X129.015 Y88.542
G1 F2700 E57.35314
G1 F1200 X128.315 Y88.369 E57.37712
G1 X127.646 Y88.098 E57.40113
G1 X127.044 Y87.692 E57.42528
G1 X126.506 Y87.207 E57.44937
G1 X126.076 Y86.616 E57.47368
G1 X125.808 Y86.114 E57.49261
G1 X125.612 Y85.577 E57.51162
G1 X125.494 Y85.027 E57.53033
G1 X125.447 Y84.423 E57.55048
G1 X125.485 Y83.85 E57.56958
G1 X125.611 Y83.262 E57.58958
G1 X125.853 Y82.595 E57.61318
G1 X126.24 Y81.976 E57.63746
G1 X126.611 Y81.534 E57.65665
G1 X127.142 Y81.053 E57.68048
G1 X127.782 Y80.681 E57.70511
G1 X128.45 Y80.413 E57.72904
G1 X129.319 Y80.259 E57.7584
G1 X130.187 Y80.293 E57.78729
G1 X130.87 Y80.464 E57.81071
G1 X131.549 Y80.735 E57.83502
G1 X132.162 Y81.149 E57.85963
G1 X132.588 Y81.533 E57.8787
G1 X132.962 Y81.971 E57.89786
G1 X133.34 Y82.589 E57.92195
G1 X133.596 Y83.269 E57.94612
G1 X133.717 Y83.841 E57.96557
G1 X133.754 Y84.418 E57.9848
G1 X133.717 Y85 E58.00419
G1 X133.561 Y85.703 E58.02814
G1 X133.274 Y86.365 E58.05214
G1 X132.963 Y86.861 E58.07161
G1 X132.587 Y87.306 E58.09099
G1 X132.156 Y87.692 E58.11023
G1 X131.577 Y88.087 E58.13355
G1 X130.746 Y88.424 E58.16337
G1 X129.91 Y88.575 E58.19163
G1 X129.015 Y88.542 E58.22141
G0 F6000 X129.102 Y88.146
G1 F1200 X128.404 Y87.973 E58.24533
G1 X127.834 Y87.742 E58.26579
G1 X127.324 Y87.399 E58.28623
G1 X126.802 Y86.937 E58.30942
G1 X126.397 Y86.369 E58.33262
G1 X126.159 Y85.907 E58.3499
G1 X126.008 Y85.495 E58.3645
G1 X125.888 Y84.958 E58.3828
G1 X125.851 Y84.418 E58.4008
G1 X125.893 Y83.856 E58.41955
G1 X126.008 Y83.342 E58.43706
G1 X126.215 Y82.771 E58.45727
G1 X126.592 Y82.179 E58.48061
G1 X126.932 Y81.782 E58.49799
G1 X127.383 Y81.374 E58.51822
G1 X127.997 Y81.025 E58.54171
G1 X128.555 Y80.801 E58.56171
G1 X129.312 Y80.666 E58.58729
G1 X130.131 Y80.691 E58.61454
G1 X130.784 Y80.857 E58.63695
G1 X131.35 Y81.088 E58.65728
G1 X131.916 Y81.464 E58.67988
G1 X132.301 Y81.811 E58.69712
G1 X132.611 Y82.177 E58.71307
G1 X132.981 Y82.765 E58.73618
G1 X133.196 Y83.34 E58.7566
G1 X133.312 Y83.856 E58.77419
G1 X133.354 Y84.418 E58.79293
G1 X133.311 Y84.98 E58.81168
G1 X133.18 Y85.579 E58.83207
G1 X132.933 Y86.144 E58.85258
G1 X132.661 Y86.59 E58.86996
G1 X132.33 Y86.995 E58.88735
G1 X131.91 Y87.376 E58.90621
G1 X131.392 Y87.727 E58.92703
G1 X130.624 Y88.038 E58.95458
G1 X129.849 Y88.173 E58.98075
G1 X129.102 Y88.146 E59.00561
G1 F2700 E54.00561
G0 F6000 X129.092 Y88.447
G0 X129.92 Y88.756
G0 X145.806 Y88.756
G0 X146.006 Y109.782
G1 F2700 E59.00561
G1 F1200 X146.006 Y58.898 E60.69802
G1 X57.016 Y58.899 E63.65784
G1 X57.016 Y109.781 E65.35018
G1 X146.006 Y109.782 E68.31
G0 F6000 X146.406 Y110.182
G1 F1200 X146.406 Y58.498 E70.02902
G1 X56.616 Y58.499 E73.01544
G1 X56.616 Y110.181 E74.7344
G1 X146.406 Y110.182 E77.72082
G0 F6000 X146.806 Y110.582
;TYPE:WALL-OUTER
G1 F1200 X146.806 Y58.098 E79.46645
G1 X56.216 Y58.099 E82.47948
G1 X56.216 Y110.581 E84.22504
G1 X146.806 Y110.582 E87.23808
G1 F2700 E82.23808
G0 F6000 X146.536 Y110.312
G0 X145.806 Y88.448
G0 X132.266 Y87.835
G0 X130.712 Y88.267
G0 X130.242 Y88.35
G0 X129.118 Y88.448
G0 X129.142 Y87.748
G1 F2700 E87.23808
G1 F1200 X128.581 Y87.611 E87.25728
G1 X128.04 Y87.394 E87.27667
G1 X127.526 Y87.05 E87.29724
G1 X127.092 Y86.653 E87.31681
G1 X126.751 Y86.181 E87.33617
G1 X126.535 Y85.77 E87.35162
G1 X126.384 Y85.358 E87.36621
G1 X126.282 Y84.889 E87.38217
G1 X126.251 Y84.404 E87.39834
G1 X126.28 Y83.968 E87.41287
G1 X126.384 Y83.478 E87.42953
G1 X126.57 Y82.965 E87.44768
G1 X126.898 Y82.436 E87.46838
G1 X127.2 Y82.079 E87.48394
G1 X127.605 Y81.713 E87.50209
G1 X128.12 Y81.409 E87.52198
G1 X128.65 Y81.195 E87.54099
G1 X129.355 Y81.064 E87.56484
G1 X130.076 Y81.09 E87.58884
G1 X130.648 Y81.233 E87.60845
G1 X131.187 Y81.454 E87.62783
G1 X131.67 Y81.78 E87.64721
G1 X132.013 Y82.089 E87.66256
G1 X132.305 Y82.435 E87.67762
G1 X132.622 Y82.941 E87.69748
G1 X132.828 Y83.505 E87.71745
G1 X132.924 Y83.967 E87.73314
G1 X132.954 Y84.418 E87.74818
G1 X132.924 Y84.868 E87.76318
G1 X132.8 Y85.455 E87.78313
G1 X132.554 Y86.007 E87.80323
G1 X132.306 Y86.4 E87.81869
G1 X132.013 Y86.749 E87.83385
G1 X131.654 Y87.068 E87.84982
G1 X131.192 Y87.38 E87.86836
G1 X130.527 Y87.65 E87.89223
